X:1
T:Adam and Eve
M:4/4
L:1/8
K:C
 EE G2 F2 A2| EE G2 D2 C2| EE G2 FF A2| D6 D2| E2 GG F2 A2| EE G2 D2 A2|\
 GG F2 EE D2| C4 A4| GG F2 EE D2| C6 z2|
